X: 36429
T: Seanamhac Tube Station
R: jig
M: 6/8
K: Adorian
|:AGE EDE|AB/c/d eeg|edB dBG|AGE DE/F/G|
A2 G EDE|AB/c/d eeg|edB dBG|1 AAB c2 B:|2 ~A3 A z2||
e3 edB|ded ~B3|edB dBG|AGE DB/c/d|
e3 edB|ded age|edB dBG|~A3 AB/c/d|
e2 g edB|ded ~B3|edB dBG|AGE DE/F/G|
AGE AGE|AGE AGE|edB edB|~A3 AB/c/d|
~e3 ~a3|g2 a b2 a|age d2 e|dBA GAB|
~e3 ~a3|g2 a b2 a|age dBe|~A3 AB/c/d|
~e3 ~a3|g2a b2a|age d2e|dBA G2 A|
AGE AGE|AGE edB|edB edB|~A3 A2 B||

